X:14704
T:S\aa{}ngshyttevalsen (Eva Saether, Mats Edn)
C:Groupa: Vildhonung
M:3/4
L:1/8
K:C
ef|e2 eA ef|d4DG|B4 AG|E4 ef|\
e3 A ef|d4 dc|Bc de dc|1 A4:|2 A6||
|:cE Ec Ec|BD DB DB|AF FA GF|E2 D2 CD|\
cE Ec Ec|BD DB DB|AG Ac BG|1 A6:|2 A4||
